X:1
T:Six Unison Melodies
T:Six Unison Melodies
T:Bartók Béla, Sz. 107
T:from Mikrokosmos 1
C:Bartók Béla
%%score { 1 | 2 }
L:1/8
Q:1/4=96
M:4/4
K:C
V:1 treble nm="Piano" snm="Pno."
V:2 bass 
V:1
 (c4 d4 | e8 | f4 e4 | d4) z4 | (e4 f4 | g4 f4 | e4 d4 | c8) |] %8
[M:4/4][Q:1/4=96]"^a)" (c2 d2 e2 d2 | e2 f2 g4 | f2 e2 d2 c2 | d4 e4) | (f2 g2 f2 e2 | d2 c2 d4 | %14
 e2 f2 e2 d2 | c8) |][M:4/4][Q:1/4=96]"^b)" (e2 d2 c2 d2 | c2 B2 A4 | B2 c2 d2 e2 | d4 c4) | %20
 (B2 A2 B2 c2 | d2 e2 d4 | c2 B2 A2 B2 | A8) |][M:4/4][Q:1/4=96] (A4 G4 | F2 E2 F2 G2 | A8) | %27
 (G4 F4 | G2 F2 E2 D2 | E8) | (F4 G4 | F4 E4 | F2 G2 A4) | (G8 | F2 E2 D2 E2 | D8) |] %36
[M:4/4][Q:1/4=96] (B2 c2 d4 | c2 d2 e4 | d2 c2 d2 e2 | f4 e4) | (f2 e2 d4 | e4 d2 c2 | B2 c2 d4 | %43
 c8) |][M:4/4][Q:1/4=104] (A2 B2 c4 | d4 c2 B2 | A8) | (B2 c2 d4 | c4 B2 A2 | B8) | (c2 B2 A2 G2 | %51
 A4 B4) | (c2 d2 c2 B2 | A4 G4) | (A2 B2 c4 | B4 A2 G2 | A8) |][M:4/4][Q:1/4=104] (G2 A2 B4 | %58
 c2 B2 A4 | B2 A2 B2 c2 | d8) | (c2 d2 c4 | B2 A2 B4) | z2 (A2 B2 c2 | B4 A4 | G8) |] %66
V:2
 (C,4 D,4 | E,8 | F,4 E,4 | D,4) z4 | (E,4 F,4 | G,4 F,4 | E,4 D,4 | C,8) |] %8
[M:4/4] (C,2 D,2 E,2 D,2 | E,2 F,2 G,4 | F,2 E,2 D,2 C,2 | D,4 E,4) | (F,2 G,2 F,2 E,2 | %13
 D,2 C,2 D,4 | E,2 F,2 E,2 D,2 | C,8) |][M:4/4] (E,2 D,2 C,2 D,2 | C,2 B,,2 A,,4 | %18
 B,,2 C,2 D,2 E,2 | D,4 C,4) | (B,,2 A,,2 B,,2 C,2 | D,2 E,2 D,4 | C,2 B,,2 A,,2 B,,2 | A,,8) |] %24
[M:4/4] (A,4 G,4 | F,2 E,2 F,2 G,2 | A,8) | (G,4 F,4 | G,2 F,2 E,2 D,2 | E,8) | (F,4 G,4 | %31
 F,4 E,4 | F,2 G,2 A,4) | (G,8 | F,2 E,2 D,2 E,2 | D,8) |][M:4/4] (B,,2 C,2 D,4 | C,2 D,2 E,4 | %38
 D,2 C,2 D,2 E,2 | F,4 E,4) | (F,2 E,2 D,4 | E,4 D,2 C,2 | B,,2 C,2 D,4 | C,8) |] %44
[M:4/4] (A,,2 B,,2 C,4 | D,4 C,2 B,,2 | A,,8) | (B,,2 C,2 D,4 | C,4 B,,2 A,,2 | B,,8) | %50
 (C,2 B,,2 A,,2 G,,2 | A,,4 B,,4) | (C,2 D,2 C,2 B,,2 | A,,4 G,,4) | (A,,2 B,,2 C,4 | %55
 B,,4 A,,2 G,,2 | A,,8) |][M:4/4] (G,,2 A,,2 B,,4 | C,2 B,,2 A,,4 | B,,2 A,,2 B,,2 C,2 | D,8) | %61
 (C,2 D,2 C,4 | B,,2 A,,2 B,,4) | z2 (A,,2 B,,2 C,2 | B,,4 A,,4 | G,,8) |] %66

